IMG/twitter.svg

<svg xmlns="http://www.w3.org/2000/svg"  viewBox="0 0 50 50" width="50px" height="50px"><path d="M 50.0625 10.4375 C 48.214844 11.257813 46.234375 11.808594 44.152344 12.058594 C 46.277344 10.785156 47.910156 8.769531 48.675781 6.371094 C 46.691406 7.546875 44.484375 8.402344 42.144531 8.863281 C 40.269531 6.863281 37.597656 5.617188 34.640625 5.617188 C 28.960938 5.617188 24.355469 10.21875 24.355469 15.898438 C 24.355469 16.703125 24.449219 17.488281 24.625 18.242188 C 16.078125 17.8125 8.503906 13.71875 3.429688 7.496094 C 2.542969 9.019531 2.039063 10.785156 2.039063 12.667969 C 2.039063 16.234375 3.851563 19.382813 6.613281 21.230469 C 4.925781 21.175781 3.339844 20.710938 1.953125 19.941406 C 1.953125 19.984375 1.953125 20.027344 1.953125 20.070313 C 1.953125 25.054688 5.5 29.207031 10.199219 30.15625 C 9.339844 30.390625 8.429688 30.515625 7.492188 30.515625 C 6.828125 30.515625 6.183594 30.453125 5.554688 30.328125 C 6.867188 34.410156 10.664063 37.390625 15.160156 37.472656 C 11.644531 40.230469 7.210938 41.871094 2.390625 41.871094 C 1.558594 41.871094 0.742188 41.824219 -0.0585938 41.726563 C 4.488281 44.648438 9.894531 46.347656 15.703125 46.347656 C 34.617188 46.347656 44.960938 30.679688 44.960938 17.09375 C 44.960938 16.648438 44.949219 16.199219 44.933594 15.761719 C 46.941406 14.3125 48.683594 12.5 50.0625 10.4375 Z"/></svg>

<svg xmlns="http://www.w3.org/2000/svg" xmlns:xlink="http://www.w3.org/1999/xlink" viewBox="0,0,256,256" width="50px" height="50px"><g fill="#ffffff" fill-rule="nonzero" stroke="none" stroke-width="1" stroke-linecap="butt" stroke-linejoin="miter" stroke-miterlimit="10" stroke-dasharray="" stroke-dashoffset="0" font-family="none" font-weight="none" font-size="none" text-anchor="none" style="mix-blend-mode: normal"><g transform="scale(5.12,5.12)"><path d="M50.0625,10.4375c-1.84766,0.82031 -3.82812,1.37109 -5.91016,1.62109c2.125,-1.27344 3.75781,-3.28906 4.52344,-5.6875c-1.98437,1.17578 -4.19141,2.03125 -6.53125,2.49219c-1.875,-2 -4.54687,-3.24609 -7.50391,-3.24609c-5.67969,0 -10.28516,4.60156 -10.28516,10.28125c0,0.80469 0.09375,1.58984 0.26953,2.34375c-8.54687,-0.42969 -16.12109,-4.52344 -21.19531,-10.74609c-0.88672,1.52344 -1.39062,3.28906 -1.39062,5.17187c0,3.56641 1.8125,6.71484 4.57422,8.5625c-1.6875,-0.05469 -3.27344,-0.51953 -4.66016,-1.28906c0,0.04297 0,0.08594 0,0.12891c0,4.98438 3.54688,9.13672 8.24609,10.08594c-0.85937,0.23438 -1.76953,0.35938 -2.70703,0.35938c-0.66406,0 -1.30859,-0.0625 -1.9375,-0.1875c1.3125,4.08203 5.10938,7.0625 9.60547,7.14453c-3.51562,2.75781 -7.94922,4.39844 -12.76953,4.39844c-0.83203,0 -1.64844,-0.04687 -2.44922,-0.14453c4.54687,2.92188 9.95312,4.62109 15.76172,4.62109c18.91406,0 29.25781,-15.66797 29.25781,-29.25391c0,-0.44531 -0.01172,-0.89453 -0.02734,-1.33203c2.00781,-1.44922 3.75,-3.26172 5.12891,-5.32422z"></path></g></g></svg>
